usr/share/icons/biglinux-icons-material/scalable/apps/instagram.svg

<?xml version="1.0" encoding="UTF-8" standalone="no"?>
<svg
   width="24"
   height="24"
   viewBox="0 0 24 24"
   fill="none"
   version="1.1"
   id="svg46865"
   sodipodi:docname="instagram.svg"
   xml:space="preserve"
   inkscape:version="1.2.2 (b0a8486541, 2022-12-01)"
   inkscape:export-filename="instagram.png"
   inkscape:export-xdpi="800"
   inkscape:export-ydpi="800"
   xmlns:inkscape="http://www.inkscape.org/namespaces/inkscape"
   xmlns:sodipodi="http://sodipodi.sourceforge.net/DTD/sodipodi-0.dtd"
   xmlns:xlink="http://www.w3.org/1999/xlink"
   xmlns="http://www.w3.org/2000/svg"
   xmlns:svg="http://www.w3.org/2000/svg"><sodipodi:namedview
     id="namedview46867"
     pagecolor="#ffffff"
     bordercolor="#000000"
     borderopacity="0.25"
     inkscape:showpageshadow="2"
     inkscape:pageopacity="0.0"
     inkscape:pagecheckerboard="0"
     inkscape:deskcolor="#d1d1d1"
     showgrid="false"
     inkscape:zoom="24.98444"
     inkscape:cx="-0.78048579"
     inkscape:cy="13.748557"
     inkscape:window-width="2560"
     inkscape:window-height="1000"
     inkscape:window-x="1680"
     inkscape:window-y="0"
     inkscape:window-maximized="1"
     inkscape:current-layer="svg46865" /><defs
     id="defs46863"><linearGradient
       id="paint0_linear_18_187"
       x1="12"
       y1="1"
       x2="12"
       y2="23"
       gradientUnits="userSpaceOnUse"><stop
         stop-color="#33BEF0"
         id="stop46858" /><stop
         offset="1"
         stop-color="#0A85D9"
         id="stop46860" /></linearGradient><radialGradient
       id="f"
       cx="158.429"
       cy="578.088"
       r="52.3515"
       xlink:href="#a"
       gradientUnits="userSpaceOnUse"
       gradientTransform="matrix(0,-0.33511267,0.35554746,0,-279.44748,96.925545)"
       fx="158.429"
       fy="578.088" /><radialGradient
       inkscape:collect="always"
       xlink:href="#b"
       id="g"
       gradientUnits="userSpaceOnUse"
       gradientTransform="matrix(0.05602213,-0.09652792,0.12566827,0.07293485,-153.36123,14.681984)"
       cx="172.6149"
       cy="600.6924"
       fx="172.6149"
       fy="600.6924"
       r="65" /><radialGradient
       inkscape:collect="always"
       xlink:href="#c"
       id="h"
       cx="144.012"
       cy="51.3367"
       fx="144.012"
       fy="51.3367"
       r="67.081"
       gradientTransform="matrix(-0.19927266,0.05611183,-0.01911237,-0.06789343,-47.086789,16.462297)"
       gradientUnits="userSpaceOnUse" /><radialGradient
       inkscape:collect="always"
       xlink:href="#d"
       id="e"
       gradientUnits="userSpaceOnUse"
       gradientTransform="matrix(-0.25817393,0.07281106,-0.05245767,-0.18600165,26.06773,132.80799)"
       cx="199.7884"
       cy="628.4379"
       fx="199.7884"
       fy="628.4379"
       r="52.3515" /><linearGradient
       inkscape:collect="always"
       id="d"><stop
         offset="0"
         stop-color="#ff005f"
         id="stop46990" /><stop
         offset="1"
         stop-color="#fc01d8"
         id="stop46992" /></linearGradient><linearGradient
       id="c"><stop
         offset="0"
         stop-color="#780cff"
         id="stop46995" /><stop
         stop-color="#820bff"
         offset="1"
         stop-opacity="0"
         id="stop46997" /></linearGradient><linearGradient
       inkscape:collect="always"
       id="b"><stop
         offset="0"
         stop-color="#fc0"
         id="stop47000" /><stop
         offset="1"
         stop-color="#fc0"
         stop-opacity="0"
         id="stop47002" /></linearGradient><linearGradient
       id="a"><stop
         offset="0"
         stop-color="#fc0"
         id="stop47005" /><stop
         offset=".1242"
         stop-color="#fc0"
         id="stop47007" /><stop
         offset=".5672"
         stop-color="#fe4a05"
         id="stop47009" /><stop
         offset=".6942"
         stop-color="#ff0f3f"
         id="stop47011" /><stop
         offset="1"
         stop-color="#fe0657"
         stop-opacity="0"
         id="stop47013" /></linearGradient><radialGradient
       fx="0"
       fy="0"
       cx="0"
       cy="0"
       r="1"
       gradientUnits="userSpaceOnUse"
       gradientTransform="matrix(0,16.499991,-16.499991,0,9,0.750029)"
       spreadMethod="pad"
       id="radialGradient41211-7"><stop
         style="stop-opacity:1;stop-color:#ffffff"
         offset="0"
         id="stop41207-8" /><stop
         style="stop-opacity:1;stop-color:#bebebe"
         offset="1"
         id="stop41209-4" /></radialGradient><radialGradient
       fx="0"
       fy="0"
       cx="0"
       cy="0"
       r="1"
       gradientUnits="userSpaceOnUse"
       gradientTransform="matrix(0,8.249996,-8.249996,0,8.999992,0.750015)"
       spreadMethod="pad"
       id="radialGradient41229-5"><stop
         style="stop-opacity:1;stop-color:#ff5151"
         offset="0"
         id="stop41225-0" /><stop
         style="stop-opacity:1;stop-color:#cb4141"
         offset="1"
         id="stop41227-3" /></radialGradient><clipPath
       clipPathUnits="userSpaceOnUse"
       id="clipPath41239-6"><path
         d="M 0,0 H 49 V 49 H 0 Z"
         id="path41237-1" /></clipPath><clipPath
       clipPathUnits="userSpaceOnUse"
       id="clipPath41255-0"><path
         d="M 0,0 H 49 V 49 H 0 Z"
         id="path41253-6" /></clipPath><clipPath
       clipPathUnits="userSpaceOnUse"
       id="clipPath41275-3"><path
         d="M 0,0 H 49 V 49 H 0 Z"
         id="path41273-2" /></clipPath><clipPath
       clipPathUnits="userSpaceOnUse"
       id="clipPath41291-0"><path
         d="M 0,0 H 49 V 49 H 0 Z"
         id="path41289-6" /></clipPath></defs><g
     id="g51809"
     transform="matrix(1.0073395,0,0,1.0073395,81.262882,-19.380803)"><path
       id="path47020"
       style="fill:url(#e);stroke-width:0.0830684"
       d="m -68.666016,20.232422 c -0.712613,-0.0019 -1.424093,0.01972 -2.136718,0.06641 -0.108465,0.03158 -0.222839,0.04622 -0.341797,0.04492 -0.737017,0.05924 -1.465062,0.177854 -2.183594,0.353516 -3.083582,0.733115 -5.028489,2.630177 -5.833984,5.693359 -0.377542,1.560915 -0.548099,3.145531 -0.511719,4.751953 -0.03041,1.510724 0.117281,3.003728 0.443359,4.478516 0.768377,3.27618 2.796497,5.279387 6.083985,6.011718 1.786065,0.36751 3.589572,0.504967 5.412109,0.410157 1.620221,-0.0275 3.198964,-0.300159 4.732422,-0.81836 1.892326,-0.69421 3.259106,-1.956066 4.103515,-3.785156 0.455263,-1.054866 0.75267,-2.154352 0.888672,-3.296875 0.181766,-1.625582 0.219206,-3.25389 0.113282,-4.886719 -0.07654,-1.300237 -0.326307,-2.566267 -0.75,-3.796875 -0.741068,-2.043975 -2.11805,-3.478769 -4.128907,-4.30664 -1.209532,-0.460047 -2.459627,-0.741115 -3.751953,-0.841797 -0.712575,-0.05047 -1.426059,-0.07623 -2.138672,-0.07813 z" /><path
       id="path47022"
       style="fill:url(#f);stroke-width:0.0830684"
       d="m -68.666016,20.232422 c -0.712613,-0.0019 -1.424093,0.01972 -2.136718,0.06641 -0.108465,0.03158 -0.222839,0.04622 -0.341797,0.04492 -0.737017,0.05924 -1.465062,0.177854 -2.183594,0.353516 -3.083582,0.733115 -5.028489,2.630177 -5.833984,5.693359 -0.377542,1.560915 -0.548099,3.145531 -0.511719,4.751953 -0.03041,1.510724 0.117281,3.003728 0.443359,4.478516 0.768377,3.27618 2.796497,5.279387 6.083985,6.011718 1.786065,0.36751 3.589572,0.504967 5.412109,0.410157 1.620221,-0.0275 3.198964,-0.300159 4.732422,-0.81836 1.892326,-0.69421 3.259106,-1.956066 4.103515,-3.785156 0.455263,-1.054866 0.75267,-2.154352 0.888672,-3.296875 0.181766,-1.625582 0.219206,-3.25389 0.113282,-4.886719 -0.07654,-1.300237 -0.326307,-2.566267 -0.75,-3.796875 -0.741068,-2.043975 -2.11805,-3.478769 -4.128907,-4.30664 -1.209532,-0.460047 -2.459627,-0.741115 -3.751953,-0.841797 -0.712575,-0.05047 -1.426059,-0.07623 -2.138672,-0.07813 z" /><path
       id="path47024"
       style="fill:url(#g);stroke-width:0.0830684"
       d="m -68.666016,20.232422 c -0.712613,-0.0019 -1.424093,0.01972 -2.136718,0.06641 -0.108465,0.03158 -0.222839,0.04622 -0.341797,0.04492 -0.737017,0.05924 -1.465062,0.177854 -2.183594,0.353516 -3.083582,0.733115 -5.028489,2.630177 -5.833984,5.693359 -0.377542,1.560915 -0.548099,3.145531 -0.511719,4.751953 -0.03041,1.510724 0.117281,3.003728 0.443359,4.478516 0.768377,3.27618 2.796497,5.279387 6.083985,6.011718 1.786065,0.36751 3.589572,0.504967 5.412109,0.410157 1.620221,-0.0275 3.198964,-0.300159 4.732422,-0.81836 1.892326,-0.69421 3.259106,-1.956066 4.103515,-3.785156 0.455263,-1.054866 0.75267,-2.154352 0.888672,-3.296875 0.181766,-1.625582 0.219206,-3.25389 0.113282,-4.886719 -0.07654,-1.300237 -0.326307,-2.566267 -0.75,-3.796875 -0.741068,-2.043975 -2.11805,-3.478769 -4.128907,-4.30664 -1.209532,-0.460047 -2.459627,-0.741115 -3.751953,-0.841797 -0.712575,-0.05047 -1.426059,-0.07623 -2.138672,-0.07813 z" /><path
       id="path47026"
       style="fill:url(#h);stroke-width:0.0830684"
       d="m -68.666016,20.232422 c -0.712613,-0.0019 -1.424093,0.01972 -2.136718,0.06641 -0.108465,0.03158 -0.222839,0.04622 -0.341797,0.04492 -0.737017,0.05924 -1.465062,0.177854 -2.183594,0.353516 -3.083582,0.733115 -5.028489,2.630177 -5.833984,5.693359 -0.377542,1.560915 -0.548099,3.145531 -0.511719,4.751953 -0.03041,1.510724 0.117281,3.003728 0.443359,4.478516 0.768377,3.27618 2.796497,5.279387 6.083985,6.011718 1.786065,0.36751 3.589572,0.504967 5.412109,0.410157 1.620221,-0.0275 3.198964,-0.300159 4.732422,-0.81836 1.892326,-0.69421 3.259106,-1.956066 4.103515,-3.785156 0.455263,-1.054866 0.75267,-2.154352 0.888672,-3.296875 0.181766,-1.625582 0.219206,-3.25389 0.113282,-4.886719 -0.07654,-1.300237 -0.326307,-2.566267 -0.75,-3.796875 -0.741068,-2.043975 -2.11805,-3.478769 -4.128907,-4.30664 -1.209532,-0.460047 -2.459627,-0.741115 -3.751953,-0.841797 -0.712575,-0.05047 -1.426059,-0.07623 -2.138672,-0.07813 z" /></g><g
     id="g41199"
     transform="matrix(1.3333333,0,0,1.3333333,-4.5225532e-4,-3.504174e-5)"
     style="opacity:0.25;mix-blend-mode:hard-light"><g
       id="g41205"><path
         d="m 7.195,0.836 c 0.09,0 0.176,-0.012 0.258,-0.035 1.078,-0.071 2.156,-0.067 3.231,0.008 0.976,0.078 1.921,0.289 2.836,0.636 1.519,0.625 2.558,1.711 3.121,3.254 0.316,0.93 0.507,1.887 0.566,2.867 0.078,1.235 0.051,2.465 -0.086,3.696 -0.105,0.863 -0.328,1.691 -0.672,2.488 -0.637,1.383 -1.672,2.336 -3.101,2.859 C 12.191,17 11,17.207 9.773,17.227 8.398,17.301 7.035,17.195 5.684,16.918 3.203,16.367 1.668,14.852 1.09,12.375 0.844,11.262 0.73,10.133 0.754,8.992 0.727,7.781 0.855,6.582 1.141,5.402 1.75,3.09 3.219,1.656 5.547,1.102 6.09,0.969 6.641,0.879 7.195,0.836 Z"
         style="fill:url(#radialGradient41211-7);fill-rule:evenodd;stroke:none"
         id="path41213" /></g></g><path
     d="m 12.000703,4.5054807 c -2.0368925,0 -2.2925195,0.0089 -3.0925343,0.045279 C 8.1097247,4.5872938 7.5647199,4.7136089 7.0878354,4.8989495 6.594552,5.0903666 6.1761071,5.3464277 5.7592311,5.7631505 5.3420438,6.1797284 5.0857846,6.5978541 4.8935966,7.0906193 4.7076536,7.5673051 4.581087,8.1120584 4.5451552,8.909603 c -0.035776,0.7994124 -0.045157,1.0550083 -0.045157,3.090392 0,2.035393 0.00908,2.290043 0.045304,3.089455 0.036724,0.797857 0.1631318,1.342457 0.3484414,1.818984 0.1917229,0.492925 0.4479741,0.91105 0.8650104,1.327621 0.4167303,0.416882 0.8351685,0.673577 1.3281392,0.864994 0.4771891,0.185333 1.0223607,0.311647 1.820645,0.34819 0.8000148,0.03636 1.055481,0.04528 3.0922218,0.04528 2.037054,0 2.291904,-0.009 3.09191,-0.04528 0.798452,-0.03653 1.344082,-0.162849 1.821271,-0.34819 0.493132,-0.191409 0.910951,-0.448104 1.327674,-0.864986 0.417188,-0.416571 0.67345,-0.834696 0.865636,-1.327461 0.184373,-0.476687 0.310939,-1.02144 0.348441,-1.818984 0.03593,-0.799411 0.04531,-1.05423 0.04531,-3.089615 0,-2.0353905 -0.0094,-2.2908196 -0.04531,-3.0902399 C 19.417195,8.1118995 19.290628,7.5673058 19.106255,7.09078 18.914069,6.5978546 18.657808,6.1797213 18.240621,5.7631511 17.823425,5.3462681 17.406231,5.0902071 16.912482,4.8989424 16.434346,4.7136096 15.889028,4.5872942 15.090586,4.5507598 14.290572,4.5143774 14.035883,4.5054809 11.998363,4.5054809 Z m -0.672821,1.350577 c 0.199697,-3.125e-4 0.422509,0 0.672821,0 2.002526,0 2.239869,0.00717 3.030659,0.04309 0.731261,0.033417 1.128137,0.1555076 1.392516,0.2580892 0.350005,0.1358376 0.599541,0.2982223 0.861884,0.5605277 0.262504,0.2623129 0.425002,0.5121302 0.561259,0.8618681 0.102662,0.2638681 0.225002,0.6604567 0.25828,1.3911752 0.03593,0.7900432 0.04375,1.0273705 0.04375,3.0274711 0,2.000093 -0.0078,2.23743 -0.04375,3.027472 -0.03344,0.730711 -0.155622,1.127298 -0.25828,1.391165 -0.135936,0.349746 -0.298755,0.598786 -0.561259,0.86093 -0.262495,0.262314 -0.511726,0.424692 -0.861884,0.56053 -0.264066,0.103049 -0.661255,0.224832 -1.392516,0.258249 -0.790629,0.03591 -1.028133,0.04372 -3.030659,0.04372 -2.0026765,0 -2.2400209,-0.0078 -3.0306576,-0.04372 C 8.2387933,18.062908 7.8419148,17.940806 7.5773757,17.838225 7.2273718,17.702386 6.9773632,17.540003 6.7148683,17.277697 6.4523641,17.015391 6.2898656,16.766199 6.1536087,16.416295 6.0509463,16.152426 5.9286067,15.755838 5.8953277,15.025126 c -0.035936,-0.79005 -0.043126,-1.027371 -0.043126,-3.028721 0,-2.0013429 0.00721,-2.2374282 0.043125,-3.0274713 C 5.9287642,8.2382141 6.0509503,7.8416341 6.1536087,7.5774534 6.2895449,7.2277077 6.4523641,6.9778905 6.7148683,6.7155853 6.9773632,6.4532721 7.2273718,6.290895 7.5773757,6.1547449 7.8417545,6.0516908 8.2387933,5.9299117 8.9700455,5.8963354 9.6619273,5.8651083 9.9300583,5.8557451 11.32789,5.8541743 Z m 4.676308,1.2443972 c -0.496881,0 -0.900019,0.4023665 -0.900019,0.8990277 0,0.496516 0.403138,0.8993483 0.900019,0.8993483 0.496875,0 0.900011,-0.4028323 0.900011,-0.8993483 0,-0.4965086 -0.403136,-0.8993326 -0.900019,-0.8993326 z m -4.003487,1.050792 c -2.1270555,0 -3.8516001,1.7232705 -3.8516001,3.8487481 0,2.125478 1.7245446,3.847963 3.8516001,3.847963 2.127056,0 3.850983,-1.722485 3.850983,-3.847963 0,-2.1254776 -1.724079,-3.8487481 -3.851134,-3.8487481 z m 0,1.3505781 c 1.38064,0 2.500033,1.1184 2.500033,2.49817 0,1.379618 -1.119393,2.498172 -2.500033,2.498172 -1.380791,0 -2.5000237,-1.118554 -2.5000237,-2.498172 0,-1.37977 1.1192327,-2.49817 2.5000237,-2.49817 z"
     inkscape:connector-curvature="0"
     fill="#ffffff"
     id="path47028"
     style="stroke-width:0.0762405" /></svg>

<svg xmlns="http://www.w3.org/2000/svg" xmlns:xlink="http://www.w3.org/1999/xlink" xml:space="preserve" width="24" height="24" fill="none"><defs><radialGradient xlink:href="#a" id="f" cx="158.429" cy="578.088" r="52.352" fx="158.429" fy="578.088" gradientTransform="matrix(0 -.33511 .35555 0 -279.447 96.926)" gradientUnits="userSpaceOnUse"/><radialGradient xlink:href="#b" id="g" cx="172.615" cy="600.692" r="65" fx="172.615" fy="600.692" gradientTransform="matrix(.05602 -.09653 .12567 .07293 -153.361 14.682)" gradientUnits="userSpaceOnUse"/><radialGradient xlink:href="#c" id="h" cx="144.012" cy="51.337" r="67.081" fx="144.012" fy="51.337" gradientTransform="matrix(-.19927 .05611 -.01911 -.0679 -47.087 16.462)" gradientUnits="userSpaceOnUse"/><radialGradient xlink:href="#d" id="e" cx="199.788" cy="628.438" r="52.352" fx="199.788" fy="628.438" gradientTransform="matrix(-.25817 .07281 -.05246 -.186 26.068 132.808)" gradientUnits="userSpaceOnUse"/><radialGradient id="i" cx="0" cy="0" r="1" fx="0" fy="0" gradientTransform="matrix(0 16.5 -16.5 0 9 .75)" gradientUnits="userSpaceOnUse" spreadMethod="pad"><stop offset="0" style="stop-opacity:1;stop-color:#fff"/><stop offset="1" style="stop-opacity:1;stop-color:#bebebe"/></radialGradient><linearGradient id="d"><stop offset="0" stop-color="#ff005f"/><stop offset="1" stop-color="#fc01d8"/></linearGradient><linearGradient id="c"><stop offset="0" stop-color="#780cff"/><stop offset="1" stop-color="#820bff" stop-opacity="0"/></linearGradient><linearGradient id="b"><stop offset="0" stop-color="#fc0"/><stop offset="1" stop-color="#fc0" stop-opacity="0"/></linearGradient><linearGradient id="a"><stop offset="0" stop-color="#fc0"/><stop offset=".124" stop-color="#fc0"/><stop offset=".567" stop-color="#fe4a05"/><stop offset=".694" stop-color="#ff0f3f"/><stop offset="1" stop-color="#fe0657" stop-opacity="0"/></linearGradient></defs><path d="M-68.666 20.232c-.713-.001-1.424.02-2.137.067a1.172 1.172 0 0 1-.342.045c-.737.059-1.465.178-2.183.353-3.084.733-5.029 2.63-5.834 5.694a18.363 18.363 0 0 0-.512 4.752 18.91 18.91 0 0 0 .444 4.478c.768 3.276 2.796 5.28 6.084 6.012 1.786.367 3.59.505 5.412.41 1.62-.028 3.199-.3 4.732-.818 1.892-.695 3.26-1.956 4.104-3.786a11.8 11.8 0 0 0 .888-3.296c.182-1.626.22-3.254.114-4.887a14.168 14.168 0 0 0-.75-3.797c-.742-2.044-2.119-3.479-4.13-4.307-1.209-.46-2.459-.74-3.751-.841a31.462 31.462 0 0 0-2.139-.079z" style="fill:url(#e);stroke-width:.0830684" transform="matrix(1.00734 0 0 1.00734 81.263 -19.38)"/><path d="M-68.666 20.232c-.713-.001-1.424.02-2.137.067a1.172 1.172 0 0 1-.342.045c-.737.059-1.465.178-2.183.353-3.084.733-5.029 2.63-5.834 5.694a18.363 18.363 0 0 0-.512 4.752 18.91 18.91 0 0 0 .444 4.478c.768 3.276 2.796 5.28 6.084 6.012 1.786.367 3.59.505 5.412.41 1.62-.028 3.199-.3 4.732-.818 1.892-.695 3.26-1.956 4.104-3.786a11.8 11.8 0 0 0 .888-3.296c.182-1.626.22-3.254.114-4.887a14.168 14.168 0 0 0-.75-3.797c-.742-2.044-2.119-3.479-4.13-4.307-1.209-.46-2.459-.74-3.751-.841a31.462 31.462 0 0 0-2.139-.079z" style="fill:url(#f);stroke-width:.0830684" transform="matrix(1.00734 0 0 1.00734 81.263 -19.38)"/><path d="M-68.666 20.232c-.713-.001-1.424.02-2.137.067a1.172 1.172 0 0 1-.342.045c-.737.059-1.465.178-2.183.353-3.084.733-5.029 2.63-5.834 5.694a18.363 18.363 0 0 0-.512 4.752 18.91 18.91 0 0 0 .444 4.478c.768 3.276 2.796 5.28 6.084 6.012 1.786.367 3.59.505 5.412.41 1.62-.028 3.199-.3 4.732-.818 1.892-.695 3.26-1.956 4.104-3.786a11.8 11.8 0 0 0 .888-3.296c.182-1.626.22-3.254.114-4.887a14.168 14.168 0 0 0-.75-3.797c-.742-2.044-2.119-3.479-4.13-4.307-1.209-.46-2.459-.74-3.751-.841a31.462 31.462 0 0 0-2.139-.079z" style="fill:url(#g);stroke-width:.0830684" transform="matrix(1.00734 0 0 1.00734 81.263 -19.38)"/><path d="M-68.666 20.232c-.713-.001-1.424.02-2.137.067a1.172 1.172 0 0 1-.342.045c-.737.059-1.465.178-2.183.353-3.084.733-5.029 2.63-5.834 5.694a18.363 18.363 0 0 0-.512 4.752 18.91 18.91 0 0 0 .444 4.478c.768 3.276 2.796 5.28 6.084 6.012 1.786.367 3.59.505 5.412.41 1.62-.028 3.199-.3 4.732-.818 1.892-.695 3.26-1.956 4.104-3.786a11.8 11.8 0 0 0 .888-3.296c.182-1.626.22-3.254.114-4.887a14.168 14.168 0 0 0-.75-3.797c-.742-2.044-2.119-3.479-4.13-4.307-1.209-.46-2.459-.74-3.751-.841a31.462 31.462 0 0 0-2.139-.079z" style="fill:url(#h);stroke-width:.0830684" transform="matrix(1.00734 0 0 1.00734 81.263 -19.38)"/><g style="opacity:.25;mix-blend-mode:hard-light"><path d="M7.195.836c.09 0 .176-.012.258-.035a23.86 23.86 0 0 1 3.231.008 10.26 10.26 0 0 1 2.836.636c1.519.625 2.558 1.711 3.121 3.254.316.93.507 1.887.566 2.867a21.227 21.227 0 0 1-.086 3.696 8.976 8.976 0 0 1-.672 2.488c-.637 1.383-1.672 2.336-3.101 2.859a11.693 11.693 0 0 1-3.575.618 15.998 15.998 0 0 1-4.089-.309c-2.481-.551-4.016-2.066-4.594-4.543a14.244 14.244 0 0 1-.336-3.383c-.027-1.211.101-2.41.387-3.59.609-2.312 2.078-3.746 4.406-4.3A10.27 10.27 0 0 1 7.195.836Z" style="fill:url(#i);fill-rule:evenodd;stroke:none" transform="matrix(1.33333 0 0 1.33333 0 0)"/></g><path fill="#fff" d="M12 4.505c-2.036 0-2.292.01-3.092.046-.798.036-1.343.163-1.82.348a3.673 3.673 0 0 0-1.329.864 3.679 3.679 0 0 0-.865 1.328c-.186.476-.313 1.021-.349 1.819C4.51 9.709 4.5 9.965 4.5 12s.01 2.29.045 3.09c.037.797.163 1.342.349 1.818.191.493.448.911.865 1.328.416.417.835.674 1.328.865.477.185 1.022.312 1.82.348.8.037 1.056.046 3.093.046s2.292-.01 3.092-.046c.798-.036 1.344-.163 1.82-.348a3.67 3.67 0 0 0 1.329-.865c.417-.417.673-.835.865-1.327.185-.477.311-1.022.349-1.82.036-.799.045-1.054.045-3.089s-.01-2.29-.045-3.09c-.038-.798-.164-1.343-.349-1.82a3.678 3.678 0 0 0-.865-1.327 3.666 3.666 0 0 0-1.329-.864c-.478-.185-1.023-.312-1.821-.348-.8-.037-1.055-.046-3.093-.046Zm-.672 1.351H12c2.002 0 2.24.007 3.03.043.732.034 1.128.156 1.393.258.35.136.6.298.862.56.262.263.425.513.561.863.103.264.225.66.258 1.39.036.79.044 1.028.044 3.028s-.008 2.238-.044 3.028c-.033.73-.155 1.127-.258 1.39-.136.35-.299.6-.561.862a2.32 2.32 0 0 1-.862.56c-.264.103-.661.225-1.393.259-.79.036-1.028.043-3.03.043-2.003 0-2.24-.007-3.031-.043-.731-.034-1.128-.156-1.393-.259-.35-.136-.6-.298-.862-.56a2.323 2.323 0 0 1-.561-.862c-.103-.264-.225-.66-.259-1.39-.036-.79-.043-1.028-.043-3.03 0-2 .007-2.237.043-3.027.034-.73.156-1.127.259-1.392.136-.35.298-.6.56-.861.263-.263.513-.425.863-.561.265-.103.662-.225 1.393-.259.692-.03.96-.04 2.358-.042ZM16.004 7.1a.9.9 0 1 0 0 1.8.9.9 0 0 0 0-1.8zm-4.003 1.051A3.85 3.85 0 0 0 8.149 12a3.85 3.85 0 0 0 3.852 3.848 3.85 3.85 0 1 0 0-7.697zm0 1.35A2.5 2.5 0 1 1 9.5 12c0-1.38 1.119-2.498 2.5-2.498z" style="stroke-width:.0762405"/></svg>
